icon/bts/inbox.svg

<svg xmlns="http://www.w3.org/2000/svg" width="32" height="32" fill="none" stroke="currentcolor" stroke-linecap="round" stroke-linejoin="round" stroke-width="2"><path d="M2 15v10h28V15l-4-8H6Zm0 0h8s1 5 6 5 6-5 6-5h8"/></svg>

<svg id="i-inbox" xmlns="http://www.w3.org/2000/svg" viewBox="0 0 32 32" fill="none" stroke="currentcolor" stroke-linecap="round" stroke-linejoin="round" stroke-width="2" height="1em" width="1em">
  <path d="M2 15 L2 25 30 25 30 15 26 7 6 7 Z M2 15 L10 15 C10 15 11 20 16 20 21 20 22 15 22 15 L30 15"/>
</svg>
